images/icons/nav.svg

<svg width="32" height="32" viewBox="0 0 32 32" fill="none" xmlns="http://www.w3.org/2000/svg">
<path d="M16 0C9.79675 0 4.75 5.04675 4.75 11.25C4.75 13.3459 5.33056 15.3913 6.42931 17.1658L15.3596 31.5568C15.5307 31.8325 15.8321 32 16.1562 32C16.1587 32 16.1611 32 16.1636 32C16.4906 31.9974 16.7926 31.8248 16.9605 31.5443L25.6632 17.0138C26.7013 15.2768 27.25 13.2837 27.25 11.25C27.25 5.04675 22.2033 0 16 0ZM24.0541 16.0511L16.142 29.2616L8.02294 16.1779C7.10838 14.7009 6.6125 12.9969 6.6125 11.25C6.6125 6.08063 10.8306 1.8625 16 1.8625C21.1694 1.8625 25.3813 6.08063 25.3813 11.25C25.3813 12.9451 24.9181 14.6055 24.0541 16.0511Z" fill="black"/>
<path d="M16 5.625C12.8984 5.625 10.375 8.14838 10.375 11.25C10.375 14.3318 12.8573 16.875 16 16.875C19.1814 16.875 21.625 14.2979 21.625 11.25C21.625 8.14838 19.1016 5.625 16 5.625ZM16 15.0125C13.9214 15.0125 12.2375 13.3229 12.2375 11.25C12.2375 9.18225 13.9323 7.4875 16 7.4875C18.0677 7.4875 19.7563 9.18225 19.7563 11.25C19.7563 13.2927 18.1115 15.0125 16 15.0125Z" fill="black"/>
</svg>

<svg width="32" height="32" fill="none" xmlns="http://www.w3.org/2000/svg"><path d="M16 0C9.797 0 4.75 5.047 4.75 11.25c0 2.096.58 4.141 1.68 5.916l8.93 14.39a.938.938 0 0 0 .796.444h.008a.937.937 0 0 0 .796-.456l8.703-14.53a11.237 11.237 0 0 0 1.587-5.764C27.25 5.047 22.203 0 16 0zm8.054 16.051-7.912 13.21-8.12-13.083a9.364 9.364 0 0 1-1.41-4.928c0-5.17 4.219-9.387 9.388-9.387 5.17 0 9.381 4.218 9.381 9.387a9.366 9.366 0 0 1-1.327 4.801z" fill="#000"/><path d="M16 5.625a5.631 5.631 0 0 0-5.625 5.625A5.618 5.618 0 0 0 16 16.875c3.181 0 5.625-2.577 5.625-5.625A5.631 5.631 0 0 0 16 5.625zm0 9.387a3.765 3.765 0 0 1-3.762-3.762A3.776 3.776 0 0 1 16 7.487a3.77 3.77 0 0 1 3.756 3.763c0 2.043-1.645 3.762-3.756 3.762z" fill="#000"/></svg>
